X: 42
T: No_37_Woman's_Dance_Song_(b).krn
N: Derived from No_37_Woman's_Dance_Song_(b).krn
%%abc-version 2.0
%%abcx-abcm2ps-target-version 5.9.1 (29 Sep 2008)
%%abc-creator hum2abc beta
%%abcx-conversion-date 2019/03/15 08:36:49
%%humdrum-veritas 1020270390
%%humdrum-veritas-data 1873453997
%%linebreak <none>
%%barnumbers 0
L: 1/8
M: 2/4
%%staves {1 2}
V: 1 clef=bass
V: 2 clef=bass
K: Bb
[V:1] [K:clef=bass][M:2/4]F,/F,3/ F,/F,3/ | 
[V:2] [K:clef=bass][M:2/4](3!accent!G,, z G,, (3!accent!G,, z G,, | 
[V:1] F2-F3/C/ | 
[V:2] z4 | 
[V:1] C/F3/ FC | 
[V:2] z4 | 
[V:1] B,2F,2- | 
[V:2] z4 | 
[V:1] F,2A,/G,3/ ]|:  
[V:2] z4 ]|:  
[V:1] B,2-B,3/G,/ | 
[V:2] z4 | 
[V:1] G,/B,3/ B,G, ||  
[V:2] z4 ||  
[V:1] [M:3/4]F,2C,4 ||  
[V:2] [M:3/4]z6 ||  
[V:1] [M:2/4]F,/F,3/ E,/E,3/ | 
[V:2] [M:2/4]z4 | 
[V:1] E,/F,3/ F,/F,3/ | 
[V:2] z4 | 
[V:1] G,/F,3/ F,/F,3/ ||  
[V:2] z4 ||  
[V:1] [M:3/4](3F,F,F,F,4- ||  
[V:2] [M:3/4]z6 ||  
[V:1] [M:2/4]F,2G,/G,3/ :|]  
[V:2] [M:2/4]z4 :|]  
[V:1] [M:3/4](3F,F,F,F,4 |]  
[V:2] [M:3/4]z6 |]  



